X:724
T:
N:Galoppad,
S:Efter »Florsen» i Burs.
O:Gotland, Burs
R:figurdans
M:2/4
L:1/8
K:G
(B>B) (BB)|(B>B) (BB)|(cB) (AG)|G2 F2|
(F>d) (dd)|(d>d) (dd)|(ed) (^cd)|e2 d2|
(B>B) (BB)|(B>B) (BB)|(cB) (AG)|G2 F2|
(F>d) (dd)|(d>d) (dd)|(ee) (ff)|g4:|
K:D
|:(A>A) (AA)|(A>g) (fe)|(dc) (Bc)|e2 d2|
(A>A) (AA)|(A>g) (fe)|(dc) (Bc)|d4:|

